X:1
T: White Heather
C:
R:Strathspey
Q: 128
K:F
M:4/4
L:1/16
|:f2|cA3 A3F B3c d3f|cA3 A3F G6 d2|cA3 A3F B3d f3d|((3c2d2c2) ((3B2A2G2) F6 f2|
cA3 A3F B3c d3f|cA3 A3F G6 d2|cA3 A3F B3d f3d|((3c2d2c2) ((3B2A2G2) F6 c2|
ff3 a3f b3a g3c|ff3 a3f d6 e2|ff3 a3f b3a g3f|((3e2f2g2) ((3c2d2e2) f6 c2|
ff3 a3f b3a g3c|ff3 a3f d6 e2|ff3 a3f dd3 b3g|((3e2f2g2) ((3c2d2e2) f6:|
